svgs/thin/raygun.svg

<svg xmlns="http://www.w3.org/2000/svg" viewBox="0 0 576 512"><!--! Font Awesome Pro 6.3.0 by @fontawesome - https://fontawesome.com License - https://fontawesome.com/license (Commercial License) Copyright 2023 Fonticons, Inc. --><path d="M112 160c-8.824 0-15.99 7.168-15.99 15.99c0 8.824 7.168 15.99 15.99 15.99c8.826 0 15.99-7.169 15.99-15.99C127.1 167.2 120.8 160 112 160zM208 160c-8.832 0-16 7.182-16 16.02s7.168 15.99 16 15.99c8.834 0 16-7.154 16-15.99S216.8 160 208 160zM571.8 104.1c-2.609-1.422-5.766-1.25-8.219 .3906L469.6 168H416V104c0-4.422-3.578-8-8-8s-8 3.578-8 8V168H352V72.02c0-4.422-3.578-8-8-8s-8 3.578-8 8v19.3c-13.21-16.51-33.27-27.3-56-27.3H193.1l-117.3-63.05C73.33-.3751 70.31-.3283 67.89 1.156C65.48 2.594 64 5.203 64 8.015v67.21C26.3 93.28 0 131.5 0 176c0 61.75 50.25 112 112 112h168c22.73 0 42.79-10.8 56-27.3v19.3c0 4.422 3.578 8 8 8s8-3.578 8-8V184h48v64c0 4.422 3.578 8 8 8S416 252.4 416 248v-64h53.58l93.98 62.66C564.9 247.6 566.5 248 568 248c1.297 0 2.594-.3125 3.781-.9531C574.4 245.7 576 242.1 576 240V112C576 109.1 574.4 106.4 571.8 104.1zM80 21.39l79.29 42.63L112 64.01c-11.19 0-21.79 2.154-32 5.226V21.39zM336 216c0 30.88-25.12 56-56 56H112c-52.94 0-96-43.06-96-96s43.06-95.1 96-95.1h168c30.88 0 56 25.12 56 55.1V216zM560 225.1L486.4 176L560 126.1V225.1zM254.9 324l-88.89 154c-4.734 8.156-12.7 14.28-21.8 16.78c-9.297 2.5-19.06 1.156-27.44-3.656L65.1 461.8c-8.203-4.656-14.3-12.56-16.73-21.84c-2.516-9.062-1.203-19 3.547-27.19L99.89 332c2.234-3.812 .9375-8.719-2.875-10.94c-3.812-2.281-8.719-1-10.94 2.875l-47.09 80.69c-6.906 11.91-8.781 26.31-5.172 39.41c3.5 13.31 12.36 24.84 24.25 31.59l50.78 29.34c8.062 4.625 17 7 26.09 7c4.484 0 9-.5938 13.47-1.75c13.39-3.688 24.56-12.28 31.48-24.22l88.89-154c2.219-3.844 .9062-8.719-2.922-10.94C262.1 318.9 257.1 320.2 254.9 324z"/></svg>

<svg xmlns="http://www.w3.org/2000/svg" viewBox="0 0 576 512"><!-- Font Awesome Pro 6.0.0-alpha2 by @fontawesome - https://fontawesome.com License - https://fontawesome.com/license (Commercial License) --><path d="M112 160.015C103.176 160.015 96.016 167.178 96.016 176.004C96.016 184.828 103.176 191.99 112 191.99C120.826 191.99 127.986 184.828 127.986 176.004C127.986 167.178 120.826 160.015 112 160.015ZM208 160.002C199.168 160.002 192 167.17 192 176.004S199.168 192.006 208 192.006C216.834 192.006 224 184.838 224 176.004S216.834 160.002 208 160.002ZM571.781 104.969C569.172 103.547 566.016 103.719 563.563 105.359L469.578 168.015H416V104.015C416 99.594 412.422 96.015 408 96.015S400 99.594 400 104.015V168.015H352V72.015C352 67.594 348.422 64.015 344 64.015S336 67.594 336 72.015V91.32C322.795 74.814 302.734 64.015 280 64.015H193.07L75.781 0.969C73.328 -0.375 70.312 -0.328 67.891 1.156C65.484 2.594 64 5.203 64 8.015V75.25C26.299 93.299 0 131.508 0 176.015C0 237.765 50.25 288.016 112 288.016H280C302.734 288.016 322.795 277.217 336 260.711V280.016C336 284.437 339.578 288.016 344 288.016S352 284.437 352 280.016V184.015H400V248.015C400 252.437 403.578 256.016 408 256.016S416 252.437 416 248.015V184.015H469.578L563.562 246.672C564.906 247.562 566.453 248.015 568 248.015C569.297 248.015 570.594 247.703 571.781 247.062C574.375 245.672 576 242.969 576 240.015V112.015C576 109.062 574.375 106.359 571.781 104.969ZM80 21.39L159.291 64.015H112C100.807 64.015 90.207 66.166 80 69.238V21.39ZM336 216.015C336 246.89 310.875 272.016 280 272.016H112C59.062 272.016 16 228.953 16 176.015S59.062 80.015 112 80.015H280C310.875 80.015 336 105.14 336 136.015V216.015ZM560 225.062L486.422 176.015L560 126.969V225.062ZM254.938 324.016L166.047 478.016C161.313 486.172 153.344 492.297 144.25 494.797C134.953 497.297 125.188 495.953 116.813 491.141L66 461.766C57.797 457.109 51.703 449.203 49.266 439.922C46.75 430.859 48.062 420.922 52.812 412.734L99.891 332.047C102.125 328.234 100.828 323.328 97.016 321.109C93.203 318.828 88.297 320.109 86.078 323.984L38.984 404.672C32.078 416.578 30.203 430.984 33.812 444.078C37.312 457.391 46.172 468.922 58.062 475.672L108.844 505.016C116.906 509.641 125.844 512.016 134.937 512.016C139.422 512.016 143.937 511.422 148.406 510.266C161.797 506.578 172.969 497.984 179.891 486.047L268.781 332.016C271 328.172 269.687 323.297 265.859 321.078C262.062 318.922 257.141 320.203 254.938 324.016Z"/></svg>
